X: 1652
T: The Golden Vale
M:C|
L:1/8
B:O'Neill's 1652
N:"collected by Carey"
K:D
(3ABc \
| (3ddd d>A B>G ~G2 | F>GA>c B>G ~G2 | {a}g2 g>f e>dc>d | (3efe (3dcB A>B{d}c-A |
| (3ddd d>A B>G~G2 | F>GA>cB>GG2 | A>ge>f g>ec>d | e>d{e}d-cd2 :|
|: f-g \
| a>fd>f g>fe>d | (3efe d>B A>GF>G | F>fe>fg>fe>d | (3Bcd e>f e2 f>g |
| a>fd>f g>fe>d | (3efe d>B A>GF>G | A>fe>f g>ec>d | e>d{e}d-c d2 :|


